svgs/samsung_calendar.svg

<svg width="24" height="24" viewBox="0 0 24 24" fill="none" xmlns="http://www.w3.org/2000/svg">
<path d="M16.432 16.3127C16.2176 16.43 15.9671 16.4886 15.6803 16.4886C15.3964 16.4886 15.1459 16.43 14.9287 16.3127C14.7116 16.1923 14.5432 16.0276 14.4235 15.8184C14.3038 15.6061 14.2439 15.3622 14.2439 15.0865C14.2439 14.8045 14.3051 14.5558 14.4276 14.3403C14.5529 14.1217 14.7241 13.9506 14.9412 13.827C15.1584 13.7003 15.4047 13.6369 15.6803 13.6369C15.9587 13.6369 16.2051 13.7003 16.4194 13.827C16.6338 13.9506 16.8036 14.1217 16.9289 14.3403C17.0541 14.5558 17.1168 14.8045 17.1168 15.0865C17.1168 15.3622 17.0555 15.6061 16.933 15.8184C16.8133 16.0276 16.6463 16.1923 16.432 16.3127Z" fill="#FFF1C0"/>
<path d="M16.3192 11.9734C16.1327 12.0843 15.9197 12.1397 15.6803 12.1397C15.4409 12.1397 15.228 12.0843 15.0415 11.9734C14.8549 11.8625 14.7088 11.7088 14.603 11.5124C14.4972 11.3159 14.4443 11.0894 14.4443 10.8327C14.4443 10.5792 14.4958 10.3574 14.5988 10.1673C14.7046 9.97402 14.8508 9.82351 15.0373 9.71578C15.2238 9.60488 15.4381 9.54943 15.6803 9.54943C15.9253 9.54943 16.1397 9.60488 16.3234 9.71578C16.5071 9.82351 16.6519 9.97402 16.7577 10.1673C16.8634 10.3574 16.9163 10.5792 16.9163 10.8327C16.9163 11.0894 16.8634 11.3159 16.7577 11.5124C16.6519 11.7088 16.5057 11.8625 16.3192 11.9734Z" fill="#FFF1C0"/>
<path fill-rule="evenodd" clip-rule="evenodd" d="M8.5 5C9.88071 5 11 3.88071 11 2.5C11 2.32877 10.9828 2.16156 10.95 2H13.05C13.0172 2.16156 13 2.32877 13 2.5C13 3.88071 14.1193 5 15.5 5C16.8807 5 18 3.88071 18 2.5C18 2.32877 17.9828 2.16156 17.95 2H19C20.6569 2 22 3.34315 22 5V19C22 20.6569 20.6569 22 19 22H5C3.34315 22 2 20.6569 2 19V5C2 3.34315 3.34315 2 5 2H6.05001C6.01722 2.16156 6 2.32877 6 2.5C6 3.88071 7.11929 5 8.5 5ZM5.08351 16.384V17.8669H11.18V16.1844H7.58892V16.1179L8.83745 14.7253C9.42483 14.1169 9.87997 13.5957 10.2029 13.1616C10.5258 12.7243 10.7499 12.3267 10.8752 11.9686C11.0032 11.6106 11.0673 11.2478 11.0673 10.8802C11.0673 10.3194 10.9406 9.82193 10.6873 9.38783C10.4339 8.95374 10.079 8.6147 9.62247 8.37072C9.16872 8.12357 8.63562 8 8.02319 8C7.42746 8 6.90132 8.12833 6.44478 8.38498C5.98824 8.64163 5.63331 9.00444 5.37999 9.47338C5.12666 9.94233 5 10.4952 5 11.1321H6.7162C6.7162 10.8216 6.76909 10.5539 6.87488 10.3289C6.98066 10.1039 7.13099 9.93124 7.32585 9.81084C7.52072 9.69043 7.74899 9.63023 8.01066 9.63023C8.2612 9.63023 8.4853 9.68726 8.68295 9.80133C8.8806 9.91223 9.03649 10.0722 9.15062 10.2814C9.26476 10.4873 9.32183 10.7329 9.32183 11.0181C9.32183 11.2747 9.27589 11.5139 9.18403 11.7357C9.09216 11.9544 8.95715 12.1778 8.77899 12.4059C8.60361 12.634 8.38647 12.8907 8.12758 13.1759L5.08351 16.384ZM13.9641 17.6435C14.4652 17.8812 15.0373 18 15.6803 18C16.3234 18 16.8941 17.8812 17.3924 17.6435C17.8934 17.4027 18.286 17.0748 18.5699 16.6597C18.8539 16.2446 18.9972 15.7741 19 15.2481C18.9972 14.8425 18.9123 14.4702 18.7453 14.1312C18.581 13.789 18.3583 13.5054 18.0772 13.2804C17.7988 13.0523 17.4884 12.9065 17.146 12.8432V12.7766C17.5942 12.6721 17.9616 12.4202 18.2484 12.0209C18.5351 11.6217 18.6799 11.1543 18.6826 10.6188C18.6799 10.1182 18.549 9.67142 18.2901 9.27852C18.0312 8.88245 17.6749 8.57034 17.2212 8.34221C16.7702 8.11407 16.2566 8 15.6803 8C15.1041 8 14.5891 8.11407 14.1353 8.34221C13.6844 8.56717 13.3294 8.87769 13.0705 9.27376C12.8116 9.66667 12.6822 10.115 12.6822 10.6188C12.6822 11.1511 12.8242 11.6185 13.1081 12.0209C13.3921 12.4202 13.7623 12.6721 14.2189 12.7766V12.8432C13.8709 12.9065 13.5563 13.0523 13.2751 13.2804C12.994 13.5054 12.7713 13.789 12.607 14.1312C12.4456 14.4702 12.3649 14.8425 12.3649 15.2481C12.3649 15.7741 12.5068 16.2446 12.7908 16.6597C13.0747 17.0748 13.4658 17.4027 13.9641 17.6435Z" fill="#FFF1C0"/>
</svg>

<svg xmlns="http://www.w3.org/2000/svg" width="24" height="24" fill="none" viewBox="0 0 24 24"><path fill="#FFF1C0" d="M16.432 16.313a1.542 1.542 0 0 1-.752.176c-.284 0-.534-.059-.751-.176a1.29 1.29 0 0 1-.505-.495 1.464 1.464 0 0 1-.18-.732c0-.281.061-.53.184-.746.125-.218.296-.39.513-.513a1.44 1.44 0 0 1 .74-.19c.278 0 .524.063.738.19.215.124.385.295.51.513.125.216.188.465.188.746 0 .276-.062.52-.184.732-.12.21-.287.374-.501.495m-.112-4.34c-.187.111-.4.167-.64.167s-.452-.056-.639-.167a1.17 1.17 0 0 1-.438-.46 1.411 1.411 0 0 1-.159-.68c0-.254.052-.476.155-.666.106-.193.252-.343.438-.451.187-.111.401-.167.643-.167.245 0 .46.056.643.167.184.108.329.258.435.451.105.19.158.412.158.666 0 .256-.053.483-.158.68-.106.196-.252.35-.439.46"/><path fill="#FFF1C0" fill-rule="evenodd" d="M8.5 5a2.5 2.5 0 0 0 2.45-3h2.1a2.5 2.5 0 1 0 4.9 0H19a3 3 0 0 1 3 3v14a3 3 0 0 1-3 3H5a3 3 0 0 1-3-3V5a3 3 0 0 1 3-3h1.05A2.5 2.5 0 0 0 8.5 5M5.084 16.384v1.483h6.096v-1.683H7.589v-.066l1.248-1.393c.588-.608 1.043-1.13 1.366-1.563.323-.438.547-.835.672-1.193.128-.358.192-.721.192-1.089 0-.56-.126-1.058-.38-1.492A2.654 2.654 0 0 0 9.622 8.37C9.17 8.124 8.636 8 8.023 8c-.596 0-1.122.128-1.578.385-.457.257-.812.62-1.065 1.088-.253.47-.38 1.022-.38 1.66h1.716c0-.311.053-.58.159-.804.106-.225.256-.398.45-.518.196-.12.424-.18.686-.18.25 0 .474.056.672.17.198.111.353.271.468.48a1.5 1.5 0 0 1 .17.737c0 .257-.045.496-.137.718a2.968 2.968 0 0 1-.405.67c-.175.228-.393.485-.651.77zm8.88 1.26c.501.237 1.073.356 1.716.356s1.214-.119 1.712-.357a2.92 2.92 0 0 0 1.178-.983c.284-.415.427-.886.43-1.412a2.533 2.533 0 0 0-.255-1.117 2.405 2.405 0 0 0-.668-.85 2.033 2.033 0 0 0-.931-.438v-.066a1.844 1.844 0 0 0 1.102-.756c.287-.4.432-.867.435-1.402a2.405 2.405 0 0 0-.393-1.34 2.69 2.69 0 0 0-1.069-.937c-.45-.228-.964-.342-1.54-.342-.577 0-1.092.114-1.546.342a2.67 2.67 0 0 0-1.065.932 2.389 2.389 0 0 0-.388 1.345c0 .532.142 1 .426 1.402.284.4.654.651 1.11.756v.066c-.347.063-.662.21-.943.437a2.405 2.405 0 0 0-.668.851 2.565 2.565 0 0 0-.242 1.117c0 .526.142.997.426 1.412a2.93 2.93 0 0 0 1.173.983" clip-rule="evenodd"/></svg>
